X:1
T: Jessie's Hornpipe
T: 8 x 32R 3C (RSCDS Bk 8)
P: The Ton
C: attrib. to Aird's Collection 1794
C: Arr. T. Traub 5-30-2004
R: reel
M: 4/4
L: 1/8
%
K: G
|: Bc|"G"d2 g2 g2 Bc|B2 d2 d2 BA|"C"G2 G2 "D"A2 A2|"G"BABc "D"B2 Bc|"G"d2 g2 g2 Bc|"Bm"B2 d2 d2 BA|"Em"G2 G2 "D"A2 A2|"G"G6 :|
|: Bc|"G"d2 g2 "C"e2 c2|"G"d2 g2 "C"e2 c2|"G"d2 B2 "Em"A2 B2|"C"AGAB "D"A2 Bc|"G"d2 g2 "C"e2 c2 |"G"d2 g2 "C"e2 c2|"G"BdBG "D"AcAF|"G"G6 :|
